public/new/svg13.svg

<svg fill="none" height="12" viewBox="0 0 16 12" width="16" xmlns="http://www.w3.org/2000/svg" xmlns:xlink="http://www.w3.org/1999/xlink"><clipPath id="a"><path d="m.729492 0h15.25v12h-15.25z"/></clipPath><g clip-path="url(#a)"><path d="m15.4833 1.39534c-.5406.23593-1.1215.39587-1.7311.46751.6221-.36764 1.1002-.9495 1.3249-1.642809-.5823.340141-1.2272.587649-1.9139.72081-.5494-.577517-1.3323-.93792131-2.1989-.93792131-1.66429 0-3.01345 1.32945031-3.01345 2.96936031 0 .23304.02643.45956.07785.67666-2.50446-.12374-4.72541-1.30556-6.21192-3.102518-.25926.438565-.40835.948778-.40835 1.493008 0 1.03055.53174 1.9388 1.34036 2.47144-.49428-.01519-.95845-.14908-1.36533-.37126v.03763c0 1.43873 1.0385 2.63864 2.41705 2.91147-.25264.06803-.51925.10422-.79393.10422-.19389 0-.38265-.01882-.56699-.05356.38338 1.17964 1.49679 2.03868 2.81512 2.06256-1.03116.7968-2.33112 1.27156-3.74272 1.27156-.2431 0-.48326-.0138-.719021-.0413 1.333751.8424 2.917941 1.3345 4.619641 1.3345 5.54279 0 8.57469-4.52455 8.57469-8.44921 0-.12882-.003-.2569-.0088-.38428.5897-.41902 1.1009-.94226 1.5048-1.53787z" fill="#a9aab7"/></g></svg>

<svg width="16" height="12" viewBox="0 0 16 12" fill="none" xmlns="http://www.w3.org/2000/svg">
<g clip-path="url(#clip0_151_14838)">
<path d="M15.4833 1.39534C14.9427 1.63127 14.3618 1.79121 13.7522 1.86285C14.3743 1.49521 14.8524 0.91335 15.0771 0.220041C14.4948 0.560182 13.8499 0.80769 13.1632 0.940851C12.6138 0.363334 11.8309 0.00292969 10.9643 0.00292969C9.30001 0.00292969 7.95085 1.33238 7.95085 2.97229C7.95085 3.20533 7.97728 3.43185 8.0287 3.64895C5.52424 3.52521 3.30329 2.34339 1.81678 0.546432C1.55752 0.984997 1.40843 1.49521 1.40843 2.03944C1.40843 3.06999 1.94017 3.97824 2.74879 4.51088C2.25451 4.49569 1.79034 4.3618 1.38346 4.13962C1.38346 4.15193 1.38346 4.16423 1.38346 4.17725C1.38346 5.61598 2.42196 6.81589 3.80051 7.08872C3.54787 7.15675 3.28126 7.19294 3.00658 7.19294C2.81269 7.19294 2.62393 7.17412 2.43959 7.13938C2.82297 8.31902 3.93638 9.17806 5.25471 9.20194C4.22355 9.99874 2.92359 10.4735 1.51199 10.4735C1.26889 10.4735 1.02873 10.4597 0.792969 10.4322C2.12672 11.2746 3.71091 11.7667 5.41261 11.7667C10.9554 11.7667 13.9873 7.24215 13.9873 3.31749C13.9873 3.18867 13.9843 3.06059 13.9785 2.93321C14.5682 2.51419 15.0794 1.99095 15.4833 1.39534Z" fill="#A9AAB7"/>
</g>
<defs>
<clipPath id="clip0_151_14838">
<rect width="15.25" height="12" fill="white" transform="translate(0.729492)"/>
</clipPath>
</defs>
</svg>
